X: 139
T: REEL: Lochaber Badger
C: C: Fred Morrison; S: Various
C: Set Leaders: Andrey, Vova
Z: Oleg Naumov arr.; MikkinNotts at The Session
N: https://thesession.org/members/26966/sets/96721
R: Reel
M: 4/4
L: 1/8
Q: 1/2=82
K: Emin
|:B2 AG AG E2|E2 DE GDEG|B2 AG AG E2|EDGD (E2 E2):||
|:E2 DE GE (A2|A2) AG A/B/d (B2|B2) AG AG E2|EDGD (E2 E2):||

